dest/img/pdf.svg

<svg width="64" height="96" viewBox="0 0 64 96" fill="none" xmlns="http://www.w3.org/2000/svg">
<path fill-rule="evenodd" clip-rule="evenodd" d="M3 12C3 7.02944 7.02944 3 12 3H43L63 23V62C63 66.9706 58.9706 71 54 71H12C7.02944 71 3 66.9706 3 62V12Z" fill="#ED204B"/>
<path fill-rule="evenodd" clip-rule="evenodd" d="M43 3L63 23H52C47.0294 23 43 18.9706 43 14V3Z" fill="#C7183C"/>
<path d="M26 52L34.0357 58.1017L42.0714 52" stroke="white" stroke-linecap="square"/>
<path d="M27.7812 36.6108C27.7812 37.8869 27.4036 38.8739 26.6484 39.5718C25.8984 40.2645 24.8307 40.6108 23.4453 40.6108H22.5781V44.3999H19.4922V32.978H23.4453C24.888 32.978 25.9714 33.2931 26.6953 33.9233C27.4193 34.5535 27.7812 35.4494 27.7812 36.6108ZM22.5781 38.0952H23.1406C23.6042 38.0952 23.9714 37.965 24.2422 37.7046C24.5182 37.4442 24.6562 37.0848 24.6562 36.6265C24.6562 35.8556 24.2292 35.4702 23.375 35.4702H22.5781V38.0952ZM39.2969 38.4468C39.2969 40.353 38.7708 41.8218 37.7188 42.853C36.6719 43.8843 35.1979 44.3999 33.2969 44.3999H29.6016V32.978H33.5547C35.388 32.978 36.8021 33.4468 37.7969 34.3843C38.7969 35.3218 39.2969 36.6759 39.2969 38.4468ZM36.0938 38.5562C36.0938 37.5093 35.8854 36.7332 35.4688 36.228C35.0573 35.7228 34.4297 35.4702 33.5859 35.4702H32.6875V41.8687H33.375C34.3125 41.8687 35 41.5978 35.4375 41.0562C35.875 40.5093 36.0938 39.6759 36.0938 38.5562ZM44.3906 44.3999H41.3516V32.978H48.1016V35.4546H44.3906V37.6343H47.8125V40.1108H44.3906V44.3999Z" fill="white"/>
</svg>

<svg fill="none" height="96" width="64" xmlns="http://www.w3.org/2000/svg"><path clip-rule="evenodd" d="m3 12a9 9 0 0 1 9-9h31l20 20v39a9 9 0 0 1 -9 9h-42a9 9 0 0 1 -9-9z" fill="#ed204b" fill-rule="evenodd"/><path clip-rule="evenodd" d="m43 3 20 20h-11a9 9 0 0 1 -9-9z" fill="#c7183c" fill-rule="evenodd"/><path d="m26 52 8.036 6.102 8.034-6.102" stroke="#fff" stroke-linecap="square"/><path d="m27.781 36.61c0 1.277-.377 2.264-1.133 2.962-.75.692-1.817 1.039-3.203 1.039h-.867v3.789h-3.086v-11.422h3.953c1.443 0 2.526.315 3.25.945s1.086 1.526 1.086 2.688zm-5.203 1.485h.563c.463 0 .83-.13 1.101-.39.276-.26.414-.62.414-1.078 0-.771-.427-1.157-1.281-1.157h-.797zm16.719.352c0 1.906-.526 3.375-1.578 4.406-1.047 1.031-2.521 1.547-4.422 1.547h-3.695v-11.422h3.953c1.833 0 3.247.469 4.242 1.406 1 .938 1.5 2.292 1.5 4.063zm-3.203.11c0-1.048-.209-1.824-.625-2.329-.412-.505-1.04-.758-1.883-.758h-.898v6.399h.687c.938 0 1.625-.271 2.063-.813.437-.547.656-1.38.656-2.5zm8.296 5.843h-3.04v-11.422h6.75v2.477h-3.71v2.18h3.422v2.476h-3.422z" fill="#fff"/></svg>
